src/assets/outline/SmartCar.svg

<svg width="24" height="24" viewBox="0 0 24 24"  xmlns="http://www.w3.org/2000/svg">
<path d="M15.4999 14.5001H3.49985C3.26985 14.5001 3.05985 14.4001 2.91985 14.2201C2.77985 14.0501 2.71986 13.8101 2.76986 13.5901L3.61985 9.5401C3.89985 8.2201 4.49985 6.87012 6.86985 6.87012H12.1399C14.5099 6.87012 15.1099 8.2201 15.3899 9.5401L16.2399 13.5901C16.2899 13.8101 16.2298 14.0401 16.0898 14.2201C15.9398 14.4001 15.7299 14.5001 15.4999 14.5001ZM4.41985 13.0001H14.5699L13.9099 9.8501C13.6999 8.8401 13.4499 8.37012 12.1299 8.37012H6.85985C5.53985 8.37012 5.28986 8.8401 5.07985 9.8501L4.41985 13.0001Z" />
<path d="M15.4698 22.75H14.0598C12.7098 22.75 12.4298 21.92 12.2898 21.47L12.1398 21.02C11.9598 20.51 11.9598 20.51 11.4298 20.51H7.58984C7.04984 20.51 7.03985 20.53 6.87985 21.02L6.72984 21.47C6.57984 21.92 6.29984 22.76 4.94984 22.76H3.53984C2.88984 22.76 2.27984 22.49 1.83984 22.01C1.41984 21.55 1.20985 20.92 1.26985 20.3L1.68985 15.73C1.81985 14.31 2.27985 13 4.71985 13H14.2898C16.7298 13 17.1899 14.31 17.3199 15.73L17.7399 20.3C17.7999 20.92 17.5898 21.54 17.1698 22.01C16.7298 22.48 16.1198 22.75 15.4698 22.75ZM13.7998 21.23C13.8198 21.23 13.8998 21.25 14.0598 21.25H15.4698C15.6998 21.25 15.9098 21.16 16.0598 20.99C16.1998 20.83 16.2698 20.64 16.2498 20.43L15.8298 15.86C15.7398 14.92 15.6998 14.49 14.2898 14.49H4.71985C3.30985 14.49 3.26984 14.92 3.17984 15.86L2.75984 20.43C2.73984 20.64 2.80984 20.84 2.94984 20.99C3.09984 21.16 3.30984 21.25 3.53984 21.25H4.94984C5.16984 21.25 5.22985 21.22 5.23985 21.22C5.23985 21.21 5.27984 21.09 5.30984 21L5.45985 20.55C5.65985 19.94 5.96985 19.01 7.59985 19.01H11.4398C13.0498 19.01 13.3499 19.89 13.5699 20.54L13.7298 21C13.7398 21.08 13.7698 21.19 13.7998 21.23Z" />
<path d="M3.5 12.25H2.75C2.34 12.25 2 11.91 2 11.5C2 11.09 2.34 10.75 2.75 10.75H3.5C3.91 10.75 4.25 11.09 4.25 11.5C4.25 11.91 3.91 12.25 3.5 12.25Z" />
<path d="M16.25 12.25H15.5C15.09 12.25 14.75 11.91 14.75 11.5C14.75 11.09 15.09 10.75 15.5 10.75H16.25C16.66 10.75 17 11.09 17 11.5C17 11.91 16.66 12.25 16.25 12.25Z" />
<path d="M7.25 17.5H5C4.59 17.5 4.25 17.16 4.25 16.75C4.25 16.34 4.59 16 5 16H7.25C7.66 16 8 16.34 8 16.75C8 17.16 7.66 17.5 7.25 17.5Z" />
<path d="M14 17.5H11.75C11.34 17.5 11 17.16 11 16.75C11 16.34 11.34 16 11.75 16H14C14.41 16 14.75 16.34 14.75 16.75C14.75 17.16 14.41 17.5 14 17.5Z" />
<path d="M18.7101 9.49C18.6101 9.49 18.5101 9.47 18.4101 9.43C18.0301 9.26 17.8601 8.82001 18.0201 8.44001C18.2101 8.01001 18.1001 7.37999 17.7501 6.85999C17.4001 6.32999 16.8701 5.98 16.3801 6H16.3701C15.9601 6 15.6301 5.67001 15.6201 5.26001C15.6201 4.84001 15.9501 4.51 16.3601 4.5C17.3901 4.48 18.3601 5.07002 18.9901 6.02002C19.6301 6.98002 19.7801 8.13003 19.3901 9.03003C19.2801 9.32003 19.0001 9.49 18.7101 9.49Z" />
<path d="M21.8201 10.4803C21.7501 10.4803 21.6901 10.4703 21.6201 10.4503C21.2201 10.3403 20.9901 9.93036 21.1001 9.53036C21.4801 8.17036 21.1601 6.55033 20.2501 5.19033C19.3401 3.83033 17.9601 2.92033 16.5501 2.75033C16.1401 2.70033 15.8501 2.33031 15.9001 1.92031C15.9501 1.51031 16.3301 1.21035 16.7301 1.27035C18.5601 1.49035 20.3401 2.65032 21.4901 4.37032C22.6401 6.09032 23.0301 8.17034 22.5401 9.95034C22.4501 10.2603 22.1501 10.4803 21.8201 10.4803Z" />
</svg>

<?xml version="1.0" encoding="UTF-8"?>
<svg width="24" height="24" viewBox="0 0 24 24" xmlns="http://www.w3.org/2000/svg">
 <path d="m15.5 14.5h-12c-0.23 0-0.44-0.1-0.58-0.28-0.14-0.17-0.19999-0.41-0.14999-0.63l0.84999-4.05c0.28-1.32 0.88-2.67 3.25-2.67h5.27c2.37 0 2.97 1.35 3.25 2.67l0.85 4.05c0.05 0.22-0.0101 0.45-0.1501 0.63-0.15 0.18-0.3599 0.28-0.5899 0.28zm-11.08-1.5h10.15l-0.66-3.15c-0.21-1.01-0.46-1.48-1.78-1.48h-5.27c-1.32 0-1.57 0.46998-1.78 1.48l-0.66 3.15z"/>
 <path d="m15.47 22.75h-1.41c-1.35 0-1.63-0.83-1.77-1.28l-0.15-0.45c-0.18-0.51-0.18-0.51-0.71-0.51h-3.84c-0.54 0-0.54999 0.02-0.70999 0.51l-0.15001 0.45c-0.15 0.45-0.43 1.29-1.78 1.29h-1.41c-0.65 0-1.26-0.27-1.7-0.75-0.42-0.46-0.62999-1.09-0.56999-1.71l0.42-4.57c0.13-1.42 0.59-2.73 3.03-2.73h9.57c2.44 0 2.9001 1.31 3.0301 2.73l0.42 4.57c0.06 0.62-0.1501 1.24-0.5701 1.71-0.44 0.47-1.05 0.74-1.7 0.74zm-1.67-1.52c0.02 0 0.1 0.02 0.26 0.02h1.41c0.23 0 0.44-0.09 0.59-0.26 0.14-0.16 0.21-0.35 0.19-0.56l-0.42-4.57c-0.09-0.94-0.13-1.37-1.54-1.37h-9.57c-1.41 0-1.45 0.43-1.54 1.37l-0.42 4.57c-0.02 0.21 0.05 0.41 0.19 0.56 0.15 0.17 0.36 0.26 0.59 0.26h1.41c0.22 0 0.28001-0.03 0.29001-0.03 0-0.01 0.03999-0.13 0.06999-0.22l0.15001-0.45c0.2-0.61 0.51-1.54 2.14-1.54h3.84c1.61 0 1.9101 0.88 2.1301 1.53l0.1599 0.46c0.01 0.08 0.04 0.19 0.07 0.23z"/>
 <path d="m3.5 12.25h-0.75c-0.41 0-0.75-0.34-0.75-0.75s0.34-0.75 0.75-0.75h0.75c0.41 0 0.75 0.34 0.75 0.75s-0.34 0.75-0.75 0.75z"/>
 <path d="m16.25 12.25h-0.75c-0.41 0-0.75-0.34-0.75-0.75s0.34-0.75 0.75-0.75h0.75c0.41 0 0.75 0.34 0.75 0.75s-0.34 0.75-0.75 0.75z"/>
 <path d="m7.25 17.5h-2.25c-0.41 0-0.75-0.34-0.75-0.75s0.34-0.75 0.75-0.75h2.25c0.41 0 0.75 0.34 0.75 0.75s-0.34 0.75-0.75 0.75z"/>
 <path d="m14 17.5h-2.25c-0.41 0-0.75-0.34-0.75-0.75s0.34-0.75 0.75-0.75h2.25c0.41 0 0.75 0.34 0.75 0.75s-0.34 0.75-0.75 0.75z"/>
 <path d="m18.71 9.49c-0.1 0-0.2-0.02-0.3-0.06-0.38-0.17-0.55-0.60999-0.39-0.98999 0.19-0.43 0.08-1.06-0.27-1.58-0.35-0.53-0.88-0.87999-1.37-0.85999h-0.01c-0.41 0-0.74-0.32999-0.75-0.73999 0-0.42 0.33-0.75001 0.74-0.76001 1.03-0.02 2 0.57002 2.63 1.52 0.64 0.96 0.79 2.11 0.4 3.01-0.11 0.29-0.39 0.45997-0.68 0.45997z"/>
 <path d="m21.82 10.48c-0.07 0-0.13-0.01-0.2-0.03-0.4-0.11-0.63-0.51994-0.52-0.91994 0.38-1.36 0.06-2.98-0.85-4.34s-2.29-2.27-3.7-2.44c-0.41-0.05-0.7-0.42002-0.65-0.83002s0.43-0.70996 0.83-0.64996c1.83 0.22 3.61 1.38 4.76 3.1s1.54 3.8 1.05 5.58c-0.09 0.30996-0.39 0.52996-0.72 0.52996z"/>
</svg>
